assets/icons/collapse-right-24.svg

<svg width="24" height="24" viewBox="0 0 24 24" fill="none" xmlns="http://www.w3.org/2000/svg">
<path d="M21.7071 12.7071C22.0976 12.3166 22.0976 11.6834 21.7071 11.2929L16.7071 6.29289C16.3166 5.90237 15.6834 5.90237 15.2929 6.29289C14.9024 6.68342 14.9024 7.31658 15.2929 7.70711L18.5858 11H9C8.44772 11 8 11.4477 8 12C8 12.5523 8.44772 13 9 13L18.5858 13L15.2929 16.2929C14.9024 16.6834 14.9024 17.3166 15.2929 17.7071C15.6834 18.0976 16.3166 18.0976 16.7071 17.7071L21.7071 12.7071Z" fill="#F2F2F2"/>
<path d="M3 3C3.55228 3 4 3.40294 4 3.9L4 20.1C4 20.5971 3.55228 21 3 21C2.44772 21 2 20.5971 2 20.1L2 3.9C2 3.40294 2.44772 3 3 3Z" fill="#F2F2F2"/>
</svg>

<svg xmlns="http://www.w3.org/2000/svg" width="24" height="24" viewBox="0 0 24 24"><path d="M21.707 12.707a1 1 0 000-1.414l-5-5a1 1 0 10-1.414 1.414L18.586 11H9a1 1 0 100 2h9.586l-3.293 3.293a1 1 0 001.414 1.414l5-5zM3 3c.552 0 1 .403 1 .9v16.2c0 .497-.448.9-1 .9s-1-.403-1-.9V3.9c0-.497.448-.9 1-.9z"/></svg>
